!!!ONB: MCCC : IFS0577_03 : Extracted Monophonic Melody
!!!COM: Schubert, Franz
!!!OPR: Piano Sonata in A minor
!!!OMV: 3
!!!SCT: D.537 (published as Op.posth.164)
!!!ODT: 1817///
**kern
*staff1
=1
*clefG2
*k[f#c#g#]
*A:
*M3/8
8.A
16B
16c
16d
=2
4e
16f#
16g#
=3
8a
16b
16cc
16dd
16ee
=4
*M6/8
4.ee#
4.r
=5
*M3/8
4.ee
=6
[4a
16.a]
32b
=7
8a
8g#
8a
=8
4cc
8b
=9
*M6/8
2.r
=10
*M3/8
8.A
16B
16c
16d
=11
4e
16f#
16g#
=12
8a
16b
16cc
16dd
16ee
=13
*M6/8
2.ee#
=14
*M3/8
4.ee#]
=15
4a#
16.a#
32cc
=16
8a#
8g##
8a#
=17
4dd
8cc
=18
8r
8r
16r
32r
32b
=19
8a
8g#
8a
=20
4cc
8b
=21
*M6/8
2.r
=22
*M3/8
8.A
16B
16c
16d
=23
4e
16f#
16g#
=24
8a
16b
16cc
16dd
16ee
=25
*M6/8
4.ee#
4.r
=26
*M3/8
4.ee
=27
[4a
16.a]
32b
=28
8a
8g#
8a
=29
4cc#
8b
=30
4.r
=31
16ee
16ff#
16dd#
16ff#
16ee
16ff#
=32
16dd#
16ff#
16ee
16ff#
16dd#
16ff#
=33
8.ee
16ee
16aa
16ccc#
=34
4.eee
=35
16eee
16ddd
16ddd
16ccc#
16ccc#
16bb
=36
16bb
16aa
16aa
16gg#
16gg#
16ff#
=37
16ff#
16ee
16ee
16dd
16dd
16cc#
=38
16cc#
16b
16b
16a
16a
16g#
=39
8r
8r
8b
=40
4dd
8b
=41
8r
8r
8bb
=42
4ddd
8bb
=43
8r
8r
8b
=44
4dd
8b
=45
8r
8r
8bb
=46
4ddd
8bb
=47
4ff#
16ee
16dd
=48
4cc#
16dd
16ee
=49
4ff#
16ee
16dd
=50
4cc#
16dd
16ee
=51
8ee#
8ee#
8ee#
=52
8ee#
8ee#
8ee#
=53
8ff#
8r
8r
=54
4.r
=55
8e#
8e#
8e#
=56
8e#
8e#
8e#
=57
8f#
8r
8r
=58
4.r
=59
4ff#
16.ee
32ee
=60
8dd
8cc#
8dd
=61
4dd#
8ff#
=62
4.ee
=63
4bb
16.bb[
32bb]
=64
8dd
8cc#
8dd
=65
4.ff#
=66
4ee
16r
32r
32a
=67
4ff#
16.ee
32ee
=68
8dd
8cc#
8dd
=69
4dd#
8ff#
=70
4.ee
=71
4bb
16.bb[
32bb]
=72
8dd
8cc#
8dd
=73
4bb
16.bb[
32bb]
=74
8dd
8cc#
8dd
=75
4bb
16.bb[
32bb]
=76
8dd
8cc#
8dd
=77
4bb
16.bb[
32bb]
=78
8dd
8cc#
8dd
=79
4ccc
16.ccc[
32ccc]
=80
8ee#
8dd##
8ee#
=81
4ccc
16.ccc[
32ccc]
=82
8ee#
8dd##
8ee#
=83
4ccc
16.ccc[
32ccc]
=84
8gg
8ff#
8gg
=85
4ccc
16.ccc[
32ccc]
=86
8gg
8ff#
8gg
=87
4ccc
16.ccc[
32ccc]
=88
8ee#
8dd##
8ee#
=89
4ccc
16.ccc[
32ccc]
=90
8ee#
8dd##
8ee#
=91
4ccc
16.ccc[
32ccc]
=92
8gg
8ff#
8gg
=93
4ccc
16.ccc[
32ccc]
=94
8gg
8ff#
8gg
=95
4.gg#[
=96
8gg#]
16aa
16gg#
16ff#
16ee
=97
8dd#
8aa#
8bb
=98
4.bb
=99
4.g#[
=100
8g#]
16a
16g#
16f#
16e
=101
8d#
8cc#
8b
=102
4.b
=103
4.gg[
=104
8gg]
16aa
16gg
16ff#
16ee
=105
8dd#
8aa#
8bb
=106
4.bb
=107
4.g[
=108
8g]
16a
16g
16f#
16e
=109
8d#
8cc
8b
=110
4.b
=111
4ee
16e
16g#
=112
16f#
16a
16g#
16b
16a
16cc#
=113
4b
16aa
16b
=114
16ff#
16b
16ee
16b
16dd#
16b
=115
4ee
16e
16g#
=116
16f#
16a
16g#
16b
16a
16cc#
=117
4b
16aa
16b
=118
16ff#
16b
16ee
16b
16dd#
16b
=119
16gg#
16b
16cc
16ff#
16dd#
16cc
=120
16ee
16e
16g#
16dd
16b
16g#
=121
16cc#
16e
16e#
16b
16g#
16e#
=122
16a
16c#
16f#
16a
16c#
16f#
=123
16a
16c#
16f#
16a
16c#
16f#
=124
16a
16c
16f#
16a
16c
16f#
=125
16a
16c
16f#
16a
16c
16f#
=126
16B
16d#
16f#
16b
16dd#
16ff#
=127
[4.aa
=128
4.aa_
=129
4.aa]
=130
4gg#
16.ff#
32ff#
=131
8ee
8dd#
8ee
=132
4ee#
8gg#
=133
4ff#
16.ccc#[
32ccc#]
=134
8ee
8dd#
8ee
=135
4gg#
8ff#
=136
4ee
16e
16g#
=137
16f#
16a
16g#
16b
16a
16cc#
=138
4b
16aa
16b
=139
16ff#
16b
16ee
16b
16dd#
16b
=140
4ee
16e
16g#
=141
16f#
16a
16g#
16b
16a
16cc#
=142
4b
16aa
16b
=143
16ff#
16b
16ee
16b
16dd#
16b
=144
16gg#
16b
16cc
16ff#
16dd#
16cc
=145
16ee
16e
16g#
16dd
16b
16g#
=146
16cc#
16e
16e#
16b
16g#
16e#
=147
16a
16c#
16f#
16a
16c#
16f#
=148
16a
16c#
16f#
16a
16c#
16f#
=149
16a
16c
16f#
16a
16c
16f#
=150
16a
16c
16f#
16a
16c
16f#
=151
16B
16d#
16f#
16b
16dd#
16ff#
=152
[4.aa
=153
4.aa_
=154
4.aa]
=155
4gg#
16.ff#
32ff#
=156
8ee
8dd#
8ee
=157
4ee#
8gg#
=158
4ff#
16.ccc#[
32ccc#]
=159
8ee
8dd#
8ee
=160
4gg#
8ff#
=161
4gg#
8ff#
=162
4gg#
8ff#
=163
*M6/8
2.r
=164
*M3/8
8.E
16F#
16G
16A
=165
4B
16c#
16d#
=166
8e
16f#
16g
16a
16b
=167
*M6/8
4.cc
4.r
=168
*M3/8
4.b
=169
4e
16.e
32f#
=170
8e
8d#
8e
=171
4g
8f#
=172
*M6/8
2.r
=173
*M3/8
8.E
16F#
16G
16A
=174
4B
16c#
16d#
=175
8e
16f#
16g
16a
16b
=176
*M6/8
2.cc
=177
*M3/8
4.cc]
=178
4e#
16.e#
32g
=179
8e#
8d##
8e#
=180
4a
8g
=181
8r
8r
16r
32r
32f#
=182
8e
8d#
8e
=183
4g
8f#
=184
*M6/8
2.r
=185
*M3/8
8.E
16F#
16G
16A
=186
4B
16c#
16d#
=187
8e
16f#
16g
16a
16b
=188
*M6/8
4.cc
4.r
=189
*M3/8
4.b
=190
4e
16.e
32f#
=191
8e
8d#
8e
=192
4g#
8f#
=193
4.r
=194
16b
16cc#
16a#
16cc#
16b
16cc#
=195
16a#
16cc#
16b
16cc#
16a#
16cc#
=196
8.b
16b
16ee
16gg#
=197
4.bb
=198
16bb
16aa
16aa
16gg#
16gg#
16ff#
=199
16ff#
16ee
16ee
16dd#
16dd#
16cc#
=200
16cc#
16b
16b
16a
16a
16g#
=201
16g#
16f#
16f#
16e
16e
16d#
=202
8r
8r
8ff#
=203
4aa
8ff#
=204
8r
8r
8fff#
=205
4aaa
8fff#
=206
8r
8r
8ff#
=207
4aa
8ff#
=208
8r
8r
8fff#
=209
4aaa
8fff#
=210
4ccc#
16bb
16aa
=211
4gg#
16aa
16bb
=212
4ccc#
16bb
16aa
=213
4gg#
16aa
16bb
=214
8ccc
8ccc
8ccc
=215
8ccc
8ccc
8ccc
=216
8ccc#
8r
8r
=217
4.r
=218
8cc
8cc
8cc
=219
8cc
8cc
8cc
=220
8cc#
8r
8r
=221
4.dd
=222
8ccc#
8ccc#
8ccc#
=223
8ccc#
8ccc#
8ccc#
=224
8ddd
8r
8r
=225
4.d
=226
8cc#
8cc#
8cc#
=227
8cc#
8cc#
8cc#
=228
8dd
8r
8r
=229
4.r
=230
4bb
16.aa
32aa
=231
8gg
8ff#
8gg
=232
4gg#
8bb
=233
4.aa
=234
4eee
16.eee[
32eee]
=235
8gg
8ff#
8gg
=236
4.bb
=237
4.aa
=238
4bb
16.aa
32aa
=239
8gg
8ff#
8gg
=240
4gg#
8bb
=241
4.aa
=242
4eee
16.eee[
32eee]
=243
8gg
8ff#
8gg
=244
4eee
16.eee[
32eee]
=245
8gg
8ff#
8gg
=246
4eee
16.eee[
32eee]
=247
8gg
8ff#
8gg
=248
4eee
16.eee[
32eee]
=249
8gg
8ff#
8gg
=250
4eee#
16.eee#[
32eee#]
=251
8aa#
8gg##
8aa#
=252
4eee#
16.eee#[
32eee#]
=253
8aa#
8gg##
8aa#
=254
4eee#
16.eee#[
32eee#]
=255
8ccc
8bb
8ccc
=256
4eee#
16.eee#[
32eee#]
=257
8ccc
8bb
8ccc
=258
4eee#
16.eee#[
32eee#]
=259
8aa#
8gg##
8aa#
=260
4eee#
16.eee#[
32eee#]
=261
8aa#
8gg##
8aa#
=262
4eee#
16.eee#[
32eee#]
=263
8ccc
8bb
8ccc
=264
4eee#
16.eee#[
32eee#]
=265
8ccc
8bb
8ccc
=266
4.ccc#[
=267
8ccc#]
16ddd
16ccc#
16bb
16aa
=268
8gg#
8ddd#
8eee
=269
4.eee
=270
4.cc#[
=271
8cc#]
16dd
16cc#
16b
16a
=272
8g#
8ff#
8ee
=273
4.ee
=274
4.ccc[
=275
8ccc]
16ddd
16ccc
16bb
16aa
=276
8gg#
8ddd#
8eee
=277
4.eee
=278
4.cc[
=279
8cc]
16dd
16cc
16b
16a
=280
8g#
8ee#
8ee
=281
4.ee
=282
4a
16a
16cc#
=283
16b
16dd
16cc#
16ee
16dd
16ff#
=284
4ee
16ddd
16ee
=285
16bb
16ee
16aa
16ee
16gg#
16ee
=286
4aa
16a
16cc#
=287
16b
16dd
16cc#
16ee
16dd
16ff#
=288
4ee
16ddd
16ee
=289
16bb
16ee
16aa
16ee
16gg#
16ee
=290
16ccc#
16ee
16ee#
16bb
16gg#
16ee#
=291
16aa
16a
16cc#
16gg
16ee
16cc#
=292
16ff#
16a
16a#
16ee
16cc#
16a#
=293
16dd
16f#
16b
16dd
16f#
16b
=294
16dd
16f#
16b
16dd
16f#
16b
=295
16dd
16e#
16b
16dd
16e#
16b
=296
16dd
16e#
16b
16dd
16e#
16b
=297
16e
16g#
16b
16ee
16gg#
16bb
=298
4.ddd
=299
4.ddd[
=300
4.ddd]
=301
4ccc#
16.bb
32bb
=302
8aa
8gg#
8aa
=303
4aa#
8ccc#
=304
4bb
16.fff#[
32fff#]
=305
8aa
8gg#
8aa
=306
4ccc#
8bb
=307
4a
16a
16cc#
=308
16b
16dd
16cc#
16ee
16dd
16ff#
=309
4ee
16ddd
16ee
=310
16bb
16ee
16aa
16ee
16gg#
16ee
=311
4aa
16a
16cc#
=312
16b
16dd
16cc#
16ee
16dd
16ff#
=313
4ee
16ddd
16ee
=314
16bb
16ee
16aa
16ee
16gg#
16ee
=315
16ccc#
16ee
16ee#
16bb
16gg#
16ee#
=316
16aa
16a
16cc#
16gg
16ee
16cc#
=317
16ff#
16a
16a#
16ee
16cc#
16a#
=318
16dd
16f#
16b
16dd
16f#
16b
=319
16dd
16f#
16b
16dd
16f#
16b
=320
16dd
16e#
16b
16dd
16e#
16b
=321
16dd
16e#
16b
16dd
16e#
16b
=322
16e
16g#
16b
16ee
16gg#
16bb
=323
4.ddd
=324
4.ddd[
=325
4.ddd]
=326
4ccc#
16.bb
32bb
=327
8aa
8gg#
8aa
=328
4aa#
8ccc#
=329
4bb
16.fff#[
32fff#]
=330
8aa
8gg#
8aa
=331
4ccc#
8bb
=332
4ccc#
8bb
=333
4ccc#
8bb
=334
*M6/8
2.r
=335
*M3/8
8.A
16B
16c
16d
=336
4e
16f#
16g#
=337
8a
16b
16cc
16dd
16ee
=338
*M6/8
4.ee#
4.r
=339
*M3/8
4.ee
=340
[4a
16.a]
32b
=341
8a
8g#
8a
=342
4cc
8b
=343
*M6/8
2.r
=344
*M3/8
8.A
16B
16c
16d
=345
4e
16f#
16g#
=346
8a
16b
16cc
16dd
16ee
=347
*M6/8
2.ee#
=348
*M3/8
4.ee#]
=349
4a#
16.a#
32cc
=350
8a#
8g##
8a#
=351
4dd
8cc
=352
8r
8r
16r
32r
32b
=353
8a
8g#
8a
=354
4cc
8b
=355
[4.a
=356
8.a]
16a
16cc
16ee#
=357
8aa
8aa
8aa
=358
8aa
8aa
8aa
=359
4.aa#[
=360
8.aa#]
16c#
16e
16g
=361
8a#
8a#
8a#
=362
8a#
8a#
8a#
=363
[4.a
=364
8.a]
16a
16cc
16ee#
=365
8aa
8aa
8aa
=366
8aa
8aa
8aa
=367
4.aa#[
=368
8.aa#]
16c#
16e
16g
=369
8a#
8a#
8a#
=370
8a#
8a#
8a#
=371
[4.a
=372
8.a]
16a
16e#
16c
=373
8A
8A
8A
=374
8A
8A
8A
=375
4.e[
=376
4.e]
=377
4.c#_
=378
4.c#]
=379
4.e[
=380
4.e]
=381
4.B[
=382
4.B]
=383
4.A
=384
4.A
=385
4.A[
=386
4.A]
=387
4.A
=388
4.A
=389
4.A
=390
4.A[
=391
4A]
8r
=392
4.aa
==
*-
